!!!OTL: SITZT A SCHENS VEGERL
!!!ARE: Europa, Mitteleuropa, Oesterreich
!!!SCT: E1575B
!!!YEM: Copyright 1995, estate of Helmut Schaffrath.
**kern
*ICvox
*Ivox
*M3/8
*k[b-]
*F:
=1
{8a
8a
8a
=2
8b-
8a
8b-
=3
8cc
8a
8f}
=4
{8a
8a
8a
=5
8b-
8a
8b-
=6
4.cc}
=7
{8a
8a
8a
=8
8b-
8a
8b-
=9
8cc
8a
8f}
=10
{8a
8a
8a
=11
8b-
16b-
16a
16b-
16g
=12
4.f}
==
!!!AGN: Staende - Lied, Fuhrmann
!!!ONB: ESAC (Essen Associative Code) Database: ERK3
!!!AMT: simple triple
!!!AIN: vox
!!!EED: Helmut Schaffrath
!!!EEV: 1.0
*-
